UI/Tools/SVG/add-cam_outline_24px.svg

<svg width="24" height="24" viewBox="0 0 24 24" fill="none" xmlns="http://www.w3.org/2000/svg">
<path d="M6 12C6 11.7033 6.08797 11.4133 6.2528 11.1666C6.41762 10.92 6.65189 10.7277 6.92597 10.6142C7.20006 10.5006 7.50166 10.4709 7.79264 10.5288C8.08361 10.5867 8.35088 10.7296 8.56066 10.9393C8.77044 11.1491 8.9133 11.4164 8.97118 11.7074C9.02906 11.9983 8.99935 12.2999 8.88582 12.574C8.77229 12.8481 8.58003 13.0824 8.33335 13.2472C8.08668 13.412 7.79667 13.5 7.5 13.5C7.10218 13.5 6.72064 13.342 6.43934 13.0607C6.15804 12.7794 6 12.3978 6 12ZM17 13.09V9L20 6.6V13.39C20.7394 13.6492 21.4194 14.0538 22 14.58V4H20L15 8V13.81C15.6185 13.4529 16.2958 13.2091 17 13.09ZM12.81 22H4C3.46957 22 2.96086 21.7893 2.58579 21.4142C2.21071 21.0391 2 20.5304 2 20V4C2 3.46957 2.21071 2.96086 2.58579 2.58579C2.96086 2.21071 3.46957 2 4 2H13V15.69C12.3851 16.6202 12.0416 17.7034 12.008 18.818C11.9745 19.9326 12.2522 21.0345 12.81 22ZM11 4H4V20H11V4ZM22 18H19V15H17V18H14V20H17V23H19V20H22V18Z" fill="#0F1621"/>
</svg>

<svg xmlns="http://www.w3.org/2000/svg" width="24" height="24" viewBox="0 0 24 24"><rect width="24" height="24" style="fill:none"/><path d="M6,12a1.5,1.5,0,1,1,1.5,1.5A1.5,1.5,0,0,1,6,12Zm11,1.09V9l3-2.4v6.79a5.87,5.87,0,0,1,2,1.19V4H20L15,8v5.81A6,6,0,0,1,17,13.09ZM12.81,22H4a2,2,0,0,1-2-2V4A2,2,0,0,1,4,2h9V15.69A6,6,0,0,0,12.81,22ZM11,4H4V20h7ZM22,18H19V15H17v3H14v2h3v3h2V20h3Z"/></svg>
